images/quality2.svg

<svg fill="none" height="40" viewBox="0 0 40 40" width="40" xmlns="http://www.w3.org/2000/svg"><path d="m19.994 37.0239-3.471 2.8999-2.288-3.9199-4.24 1.512-.82203-4.48-4.49298-.0449.732-4.5-4.20801-1.6001 2.21002-3.9659-3.414-2.965 3.41199-2.9671-2.20996-3.9651 4.20898-1.5998-.73303-4.49514 4.49402-.04394.82202-4.47998 4.23998 1.51098 2.288-3.91992 3.471 2.8999 3.471-2.8999 2.289 3.9209 4.24-1.51196.821 4.48095 4.494.04492-.732 4.49509 4.208 1.6001-2.21 3.9658 3.412 2.9651-3.412 2.9671 2.209 3.966-4.209 1.5999.733 4.4941-4.495.045-.821 4.4809-4.238-1.511-2.289 3.92zm1.206-1.4829 1.761 1.471 1.161-1.99.792-1.356 1.468.523 2.151.768.417-2.2732.285-1.5549 1.561-.0159 2.282-.021-.372-2.2822-.254-1.5598 1.459-.554 2.134-.8132-1.12-2.0098-.766-1.375 1.183-1.0271 1.734-1.51-1.733-1.5-1.183-1.029.766-1.376 1.121-2.011-2.134-.811-1.459-.553.255-1.5601.372-2.28096-2.282-.02295-1.56-.01586-.285-1.5542-.416-2.27295-2.152.76709-1.468.52295-.793-1.35694-1.162-1.98999-1.762 1.47095-1.205 1.00488-1.205-1.00488-1.761-1.47095-1.161 1.98902-.792 1.35693-1.469-.52295-2.15-.76807-.418 2.27393-.285 1.5542-1.55999.01587-2.28101.02197.37201 2.28201.25397 1.5581-1.45899.5549-2.13501.811 1.12104 2.011.76599 1.375-1.18299 1.0291-1.734 1.508 1.73297 1.5069 1.18298 1.029-.76599 1.375-1.12097 2.01 2.13299.8101 1.46002.5549-.255 1.5591-.37103 2.2839 2.281.023 1.56001.0161.285 1.5549.417 2.272 2.152-.7671 1.469-.5229.792 1.3569 1.162 1.9902 1.761-1.4711 1.205-1.0049zm.118-12.521c0-2.927 1.565-4.5552 3.459-4.5552 2.006 0 3.3 1.5631 3.3 4.3301 0 3.059-1.585 4.5769-3.415 4.5769-1.779 0-3.324-1.4498-3.344-4.3518zm1.521-.0881c-.023 1.851.682 3.258 1.872 3.258 1.277 0 1.85-1.385 1.85-3.3 0-1.765-.507-3.2371-1.85-3.2371-1.211-.004-1.872 1.4501-1.872 3.2781zm-7.645 4.4001 8.415-14.719h1.233l-8.415 14.719zm-3.215-10.342c0-2.9 1.563-4.532 3.458-4.532 2 0 3.326 1.564 3.326 4.332 0 3.058-1.586 4.575-3.436 4.575-1.783 0-3.327-1.45-3.348-4.374zm1.542-.0662c-.044 1.851.641 3.2571 1.85 3.2591 1.277 0 1.85-1.3841 1.85-3.3001 0-1.766-.507-3.2378-1.85-3.2378-1.209-.003-1.85 1.447-1.85 3.28z" fill="#f16d7f"/></svg>

<svg width="40" height="40" viewBox="0 0 40 40" fill="none" xmlns="http://www.w3.org/2000/svg">
<path d="M19.994 37.0239L16.523 39.9238L14.235 36.0039L9.995 37.5159L9.17297 33.0359L4.67999 32.991L5.41199 28.491L1.20398 26.8909L3.414 22.925L0 19.96L3.41199 16.9929L1.20203 13.0278L5.41101 11.428L4.67798 6.93286L9.172 6.88892L9.99402 2.40894L14.234 3.91992L16.522 0L19.993 2.8999L23.464 0L25.753 3.9209L29.993 2.40894L30.814 6.88989L35.308 6.93481L34.576 11.4299L38.784 13.03L36.574 16.9958L39.986 19.9609L36.574 22.928L38.783 26.894L34.574 28.4939L35.307 32.988L30.812 33.033L29.991 37.5139L25.753 36.0029L23.464 39.9229L19.994 37.0239ZM21.2 35.541L22.961 37.012L24.122 35.022L24.914 33.666L26.382 34.189L28.533 34.957L28.95 32.6838L29.235 31.1289L30.796 31.113L33.078 31.092L32.706 28.8098L32.452 27.25L33.911 26.696L36.045 25.8828L34.925 23.873L34.159 22.498L35.342 21.4709L37.076 19.9609L35.343 18.4609L34.16 17.4319L34.926 16.0559L36.047 14.0449L33.913 13.2339L32.454 12.6809L32.709 11.1208L33.081 8.83984L30.799 8.81689L29.239 8.80103L28.954 7.24683L28.538 4.97388L26.386 5.74097L24.918 6.26392L24.125 4.90698L22.963 2.91699L21.201 4.38794L19.996 5.39282L18.791 4.38794L17.03 2.91699L15.869 4.90601L15.077 6.26294L13.608 5.73999L11.458 4.97192L11.04 7.24585L10.755 8.80005L9.19501 8.81592L6.914 8.83789L7.28601 11.1199L7.53998 12.678L6.08099 13.2329L3.94598 14.0439L5.06702 16.0549L5.83301 17.4299L4.65002 18.459L2.91602 19.967L4.64899 21.4739L5.83197 22.5029L5.06598 23.8779L3.94501 25.8879L6.078 26.698L7.53802 27.2529L7.28302 28.812L6.91199 31.0959L9.19299 31.1189L10.753 31.135L11.038 32.6899L11.455 34.9619L13.607 34.1948L15.076 33.6719L15.868 35.0288L17.03 37.019L18.791 35.5479L19.996 34.543L21.2 35.541ZM21.318 23.02C21.318 20.093 22.883 18.4648 24.777 18.4648C26.783 18.4648 28.077 20.0279 28.077 22.7949C28.077 25.8539 26.492 27.3718 24.662 27.3718C22.883 27.3718 21.338 25.922 21.318 23.02ZM22.839 22.9319C22.816 24.7829 23.521 26.1899 24.711 26.1899C25.988 26.1899 26.561 24.8049 26.561 22.8899C26.561 21.1249 26.054 19.6528 24.711 19.6528C23.5 19.6488 22.839 21.1029 22.839 22.9309V22.9319ZM15.194 27.332L23.609 12.613H24.842L16.427 27.332H15.194ZM11.979 16.99C11.979 14.09 13.542 12.458 15.437 12.458C17.437 12.458 18.763 14.022 18.763 16.79C18.763 19.848 17.177 21.365 15.327 21.365C13.544 21.365 12 19.915 11.979 16.991V16.99ZM13.521 16.9238C13.477 18.7748 14.162 20.1809 15.371 20.1829C16.648 20.1829 17.221 18.7988 17.221 16.8828C17.221 15.1168 16.714 13.645 15.371 13.645C14.162 13.642 13.521 15.092 13.521 16.925V16.9238Z" fill="#F16D7F"/>
</svg>
